material/.icons/material/keyboard-f3.svg

<svg xmlns="http://www.w3.org/2000/svg" viewBox="0 0 24 24"><path d="M5 7h6v2H7v2h3v2H7v4H5V7m14 8c0 1.11-.89 2-2 2h-4v-2h4v-2h-2v-2h2V9h-4V7h4a2 2 0 012 2v1.5c0 .83-.67 1.5-1.5 1.5.83 0 1.5.67 1.5 1.5V15z"/></svg>

<?xml version="1.0" encoding="UTF-8"?><!DOCTYPE svg PUBLIC "-//W3C//DTD SVG 1.1//EN" "http://www.w3.org/Graphics/SVG/1.1/DTD/svg11.dtd"><svg xmlns="http://www.w3.org/2000/svg" xmlns:xlink="http://www.w3.org/1999/xlink" version="1.1" id="mdi-keyboard-f3" width="24" height="24" viewBox="0 0 24 24"><path d="M5 7H11V9H7V11H10V13H7V17H5V7M19 15C19 16.11 18.11 17 17 17H13V15H17V13H15V11H17V9H13V7H17C18.1 7 19 7.89 19 9V10.5C19 11.33 18.33 12 17.5 12C18.33 12 19 12.67 19 13.5V15Z" /></svg>
